build/img/bg-count.svg

<svg width="48" height="48" viewBox="0 0 48 48" fill="none" xmlns="http://www.w3.org/2000/svg">
<mask id="path-1-inside-1_1450_86923" fill="white">
<path d="M0 12C0 5.37258 5.37258 0 12 0H36C42.6274 0 48 5.37258 48 12V36C48 42.6274 42.6274 48 36 48H12C5.37258 48 0 42.6274 0 36V12Z"/>
</mask>
<path d="M0 12C0 5.37258 5.37258 0 12 0H36C42.6274 0 48 5.37258 48 12V36C48 42.6274 42.6274 48 36 48H12C5.37258 48 0 42.6274 0 36V12Z" fill="#F2F3F7"/>
<path d="M12 2H36V-2H12V2ZM46 12V36H50V12H46ZM36 46H12V50H36V46ZM2 36V12H-2V36H2ZM12 46C6.47715 46 2 41.5228 2 36H-2C-2 43.732 4.26801 50 12 50V46ZM46 36C46 41.5228 41.5228 46 36 46V50C43.732 50 50 43.732 50 36H46ZM36 2C41.5228 2 46 6.47715 46 12H50C50 4.26801 43.732 -2 36 -2V2ZM12 -2C4.26801 -2 -2 4.26801 -2 12H2C2 6.47715 6.47715 2 12 2V-2Z" fill="url(#paint0_linear_1450_86923)" mask="url(#path-1-inside-1_1450_86923)"/>
<path d="M5 13C5.33333 10.5 7.5 5.4 13.5 5" stroke="white" stroke-width="3" stroke-linecap="round"/>
<defs>
<linearGradient id="paint0_linear_1450_86923" x1="28.2" y1="74.625" x2="28.2" y2="-27" gradientUnits="userSpaceOnUse">
<stop offset="0.0388586" stop-color="#B9C4D2"/>
<stop offset="0.451042" stop-color="#EEF5FD" stop-opacity="0"/>
<stop offset="1" stop-color="white"/>
</linearGradient>
</defs>
</svg>

<svg width="48" height="48" fill="none" xmlns="http://www.w3.org/2000/svg"><mask id="a" fill="#fff"><path d="M0 12C0 5.373 5.373 0 12 0h24c6.627 0 12 5.373 12 12v24c0 6.627-5.373 12-12 12H12C5.373 48 0 42.627 0 36V12z"/></mask><path d="M0 12C0 5.373 5.373 0 12 0h24c6.627 0 12 5.373 12 12v24c0 6.627-5.373 12-12 12H12C5.373 48 0 42.627 0 36V12z" fill="#F2F3F7"/><path d="M12 2h24v-4H12v4zm34 10v24h4V12h-4zM36 46H12v4h24v-4zM2 36V12h-4v24h4zm10 10C6.477 46 2 41.523 2 36h-4c0 7.732 6.268 14 14 14v-4zm34-10c0 5.523-4.477 10-10 10v4c7.732 0 14-6.268 14-14h-4zM36 2c5.523 0 10 4.477 10 10h4c0-7.732-6.268-14-14-14v4zM12-2C4.268-2-2 4.268-2 12h4C2 6.477 6.477 2 12 2v-4z" fill="url(#paint0_linear_1450_86923)" mask="url(#a)"/><path d="M5 13c.333-2.5 2.5-7.6 8.5-8" stroke="#fff" stroke-width="3" stroke-linecap="round"/><defs><linearGradient id="paint0_linear_1450_86923" x1="28.2" y1="74.625" x2="28.2" y2="-27" gradientUnits="userSpaceOnUse"><stop offset=".039" stop-color="#B9C4D2"/><stop offset=".451" stop-color="#EEF5FD" stop-opacity="0"/><stop offset="1" stop-color="#fff"/></linearGradient></defs></svg>
